X: 4
T: Lougheil March, The
Z: CreadurMawnOrganig
S: https://thesession.org/tunes/6884#setting18457
R: barndance
M: 4/4
L: 1/8
K: Ador
g>f |e2 A2 e2 A2|e>^de/f/g g>e=dB|G2G2 Bc/B/AG|B2d2-d2g>f |e2A2 eAA/A/A|e>^def g2 d/c/B | A3AB2 B/A/G |g2e2-e2 :||: ge |d>cde g2 ge | a>baf gfed | g2 e2 fede | g2 e2- e2 e/f/g |a2 fa g2 eg | f2 d/e/f edcB | A3 A Bc/B/ AG | g2 e2 e2 :|g|eAA/AA e2dc|BGG/G/G BEEa|eAA/AA e2dc|BGAG geeg:|:dega bgab|gdd/d/d gdde|dega bgab|gee/e/e geeg|dega bgab|gdd/d/d dega|bgae degd|BAA/A/A geeg||
